svg/black/gbx.svg

<svg height="32" viewBox="0 0 32 32" width="32" xmlns="http://www.w3.org/2000/svg"><path d="m16 32c-8.836556 0-16-7.163444-16-16s7.163444-16 16-16 16 7.163444 16 16-7.163444 16-16 16zm-.3014303-20.9938624h-4.7004694c-.9940952 0-2.14021024.3250139-3.05336137.9732666-1.2275322.871434-1.94473893 2.2379058-1.94473893 4.0236646s.71720673 3.1522306 1.94473893 4.0236646c.91315113.6482526 2.05926617.9732666 3.05336137.9732666h2.0008676v-2.0605902h-2.0008676c-.60923 0-1.36022159-.2129653-1.91887078-.6095544-.69305481-.4920047-1.07952442-1.2283332-1.07952442-2.3267866s.38646961-1.834782 1.07952442-2.3267866c.55864919-.3965891 1.30964078-.6095544 1.91887078-.6095544h4.7004694zm-4.9992627 6.1817705h3.000873v3.8120919h1.9997051v-5.872682h-5.0005781zm8.2987762-4.1273179h5.0022117v5.8788196h-5.0022117v-5.872682h-1.9997051v7.9332722h9.0016219v-10h-7.0019168z" fill-rule="evenodd"/></svg>

<svg height="32" width="32" xmlns="http://www.w3.org/2000/svg"><path d="M16 32C7.163 32 0 24.837 0 16S7.163 0 16 0s16 7.163 16 16-7.163 16-16 16zm-.301-20.994h-4.7c-.995 0-2.141.325-3.054.973C6.717 12.851 6 14.217 6 16.003s.717 3.152 1.945 4.024c.913.648 2.059.973 3.053.973H13v-2.06h-2c-.61 0-1.361-.214-1.92-.61C8.386 17.838 8 17.102 8 16.003s.387-1.835 1.08-2.327a3.507 3.507 0 0 1 1.92-.61h4.7zm-5 6.182H13.7V21h2v-5.873h-5zM19 13.06H24v5.878h-5.002v-5.872h-2V21H26V11h-7.002z" fill-rule="evenodd"/></svg>
